X: 9359
T: Dancing In Kyle
R: waltz
M: 3/4
K: Dmajor
FE|D2 F2 A2|A2 F2 A2|B2 d2 B2|A2 F2 E2|
D2 F2 A2|d2 A2 F2|E6-|E4 FE|
D2 F2 A2|A2 F2 A2|B2 d2 B2|A2 F2 A2|
B2 c2 d2|e2 c2 A2|d6-|d4 de|
f2 d2 d2|A2 d2 d2|f2 d2 d2|A2 F2 A2|
B2 c2 d2|A2 F2 D2|E6-|E4 FE|
D2 F2 A2|A2 F2 A2|B2 d2 B2|A2 F2 A2|
B2 c2 d2|e2 c2 A2|d6-|d4||

